symbols/web/camera_enhance/materialsymbolsoutlined/camera_enhance_wght300_24px.svg

<svg xmlns="http://www.w3.org/2000/svg" height="24" width="24"><path d="M12 17.225q1.75 0 2.988-1.237Q16.225 14.75 16.225 13t-1.237-2.988Q13.75 8.775 12 8.775t-2.988 1.237Q7.775 11.25 7.775 13t1.237 2.988Q10.25 17.225 12 17.225Zm0-.95-1.025-2.25L8.725 13l2.25-1.025L12 9.725l1.025 2.25L15.275 13l-2.25 1.025ZM4.3 20.5q-.75 0-1.275-.525Q2.5 19.45 2.5 18.7V7.3q0-.75.525-1.275Q3.55 5.5 4.3 5.5h3.05l1.85-2h5.6l1.85 2h3.05q.75 0 1.275.525.525.525.525 1.275v11.4q0 .75-.525 1.275-.525.525-1.275.525ZM19.7 19q.125 0 .213-.087.087-.088.087-.213V7.3q0-.125-.087-.212Q19.825 7 19.7 7h-3.725l-1.85-2h-4.25l-1.85 2H4.3q-.125 0-.212.088Q4 7.175 4 7.3v11.4q0 .125.088.213.087.087.212.087ZM12 13Z"/></svg>

<svg xmlns="http://www.w3.org/2000/svg" height="24" width="24"><path d="M12 17.225Q13.75 17.225 14.988 15.988Q16.225 14.75 16.225 13Q16.225 11.25 14.988 10.012Q13.75 8.775 12 8.775Q10.25 8.775 9.012 10.012Q7.775 11.25 7.775 13Q7.775 14.75 9.012 15.988Q10.25 17.225 12 17.225ZM12 16.275 10.975 14.025 8.725 13 10.975 11.975 12 9.725 13.025 11.975 15.275 13 13.025 14.025ZM4.3 20.5Q3.55 20.5 3.025 19.975Q2.5 19.45 2.5 18.7V7.3Q2.5 6.55 3.025 6.025Q3.55 5.5 4.3 5.5H7.35L9.2 3.5H14.8L16.65 5.5H19.7Q20.45 5.5 20.975 6.025Q21.5 6.55 21.5 7.3V18.7Q21.5 19.45 20.975 19.975Q20.45 20.5 19.7 20.5ZM19.7 19Q19.825 19 19.913 18.913Q20 18.825 20 18.7V7.3Q20 7.175 19.913 7.088Q19.825 7 19.7 7H15.975L14.125 5H9.875L8.025 7H4.3Q4.175 7 4.088 7.088Q4 7.175 4 7.3V18.7Q4 18.825 4.088 18.913Q4.175 19 4.3 19ZM12 13Q12 13 12 13Q12 13 12 13Q12 13 12 13Q12 13 12 13Q12 13 12 13Q12 13 12 13Q12 13 12 13Q12 13 12 13Z"/></svg>
